images/vinyl_logo.svg

<svg viewBox="0 0 600 161.72" xmlns="http://www.w3.org/2000/svg"><g fill="#fff"><path d="m82 161.72h-36a2.93 2.93 0 0 1 -2.83-2.15l-43.06-155.86a2.93 2.93 0 0 1 2.82-3.71h27a2.93 2.93 0 0 1 2.85 2.24l28.38 116.43a2.93 2.93 0 0 0 5.7 0l28.2-116.43a2.94 2.94 0 0 1 2.85-2.24h27a2.93 2.93 0 0 1 2.83 3.71l-42.91 155.85a2.94 2.94 0 0 1 -2.83 2.16z"/><path d="m155.76 158.78v-155.85a2.93 2.93 0 0 1 2.93-2.93h26a2.93 2.93 0 0 1 2.93 2.93v155.85a2.94 2.94 0 0 1 -2.93 2.94h-26a2.94 2.94 0 0 1 -2.93-2.94z"/><path d="m308.1 160-42.64-91.64a2.93 2.93 0 0 0 -5.59 1.24v89.18a2.94 2.94 0 0 1 -2.93 2.94h-26.23a2.94 2.94 0 0 1 -2.93-2.94v-155.85a2.93 2.93 0 0 1 2.93-2.93h35.34a2.93 2.93 0 0 1 2.68 1.74l40.87 92a2.93 2.93 0 0 0 5.61-1.19v-89.62a2.93 2.93 0 0 1 2.93-2.93h26.22a2.94 2.94 0 0 1 2.94 2.93v155.85a2.94 2.94 0 0 1 -2.94 2.94h-33.6a2.94 2.94 0 0 1 -2.66-1.72z"/><path d="m451.66 113v45.75a2.94 2.94 0 0 1 -2.93 2.94h-27a2.94 2.94 0 0 1 -2.94-2.94v-45.75a3.06 3.06 0 0 0 -.2-1.09l-43.14-107.91a2.93 2.93 0 0 1 2.72-4h26.2a2.93 2.93 0 0 1 2.76 1.93l25.41 70.21a2.93 2.93 0 0 0 5.5 0l26.55-70.24a2.93 2.93 0 0 1 2.75-1.9h26.92a2.93 2.93 0 0 1 2.74 4.06l-45.11 107.84a2.93 2.93 0 0 0 -.23 1.1z"/><path d="m525.71 158.78v-155.85a2.93 2.93 0 0 1 2.93-2.93h26a2.93 2.93 0 0 1 2.93 2.93v127.07a2.93 2.93 0 0 0 2.93 2.93h36.59a2.93 2.93 0 0 1 2.93 2.93v22.94a2.94 2.94 0 0 1 -2.93 2.94h-68.45a2.94 2.94 0 0 1 -2.93-2.96z"/></g></svg>

<svg id="Layer_1" data-name="Layer 1" xmlns="http://www.w3.org/2000/svg" viewBox="0 0 600 161.72"><defs><style>.cls-1{fill:#fff;}</style></defs><path class="cls-1" d="M82,161.72H46a2.93,2.93,0,0,1-2.83-2.15L.11,3.71A2.93,2.93,0,0,1,2.93,0h27a2.93,2.93,0,0,1,2.85,2.24L61.16,118.67a2.93,2.93,0,0,0,5.7,0L95.06,2.24A2.94,2.94,0,0,1,97.91,0h27a2.93,2.93,0,0,1,2.83,3.71L84.83,159.56A2.94,2.94,0,0,1,82,161.72Z"/><path class="cls-1" d="M155.76,158.78V2.93A2.93,2.93,0,0,1,158.69,0h26a2.93,2.93,0,0,1,2.93,2.93V158.78a2.94,2.94,0,0,1-2.93,2.94h-26A2.94,2.94,0,0,1,155.76,158.78Z"/><path class="cls-1" d="M308.1,160,265.46,68.36a2.93,2.93,0,0,0-5.59,1.24v89.18a2.94,2.94,0,0,1-2.93,2.94H230.71a2.94,2.94,0,0,1-2.93-2.94V2.93A2.93,2.93,0,0,1,230.71,0h35.34a2.93,2.93,0,0,1,2.68,1.74l40.87,92a2.93,2.93,0,0,0,5.61-1.19V2.93A2.93,2.93,0,0,1,318.14,0h26.22a2.94,2.94,0,0,1,2.94,2.93V158.78a2.94,2.94,0,0,1-2.94,2.94h-33.6A2.94,2.94,0,0,1,308.1,160Z"/><path class="cls-1" d="M451.66,113v45.75a2.94,2.94,0,0,1-2.93,2.94h-27a2.94,2.94,0,0,1-2.94-2.94V113a3.06,3.06,0,0,0-.2-1.09L375.45,4a2.93,2.93,0,0,1,2.72-4h26.2a2.93,2.93,0,0,1,2.76,1.93l25.41,70.21a2.93,2.93,0,0,0,5.5,0L464.59,1.9A2.93,2.93,0,0,1,467.34,0h26.92A2.93,2.93,0,0,1,497,4.06L451.89,111.9A2.93,2.93,0,0,0,451.66,113Z"/><path class="cls-1" d="M525.71,158.78V2.93A2.93,2.93,0,0,1,528.64,0h26a2.93,2.93,0,0,1,2.93,2.93V130a2.93,2.93,0,0,0,2.93,2.93h36.59a2.93,2.93,0,0,1,2.93,2.93v22.94a2.94,2.94,0,0,1-2.93,2.94H528.64A2.94,2.94,0,0,1,525.71,158.78Z"/></svg>
